X: 241
T:Jurelul
O:Romania
M:2/4
L:1/16
K:G
Q:1/4=84
V:1
%%MIDI program 41 viola
   GBGB c2cB      |A2A2 d2d2|GBGB c2cB      | A2A2 A4::
   B/c/dB/c/d BAG2|BAG2 A2G2|B/c/dB/c/d BAG2|BAG2 A2G2::
   Gc2c BAG2      |BAGF G2G2| Gc2c BAG2     |BAGF G2G2 :|



